X: 1
T: MINEAPOLIS -- HORNPIPE
B: Ryan's Mammoth Collection of Fiddle Tunes
R: hornpipe
M: C|
L: 1/8
Z: Contributed 20000505194420 by John Chambers jchambers:casc.com
N:
N: (Can be used as a Clog.)
K: Bb
(udc) \
| B>FD>F B>Fd>B | d>Bd>f b>fd>B | F>Ac>A e>cA>F | A>FA>c e>cA>F |
| B>DF>B d>BF>D | d>Bd>f b>fd>f | g>ab>a g>f=e>f | g>f{g}f>=e f2 :|
|: (uBd) \
| f>dg>d f>Bd>f | g>ab>a g>fe>d | e>fg>f e>dc>B | A>Bc>B A>GF>E |
| D>BA>B G>BF>B, | D>BA>B G>BF>A | B>ba>g ^f>ge>A | B2b2B2 :|
